Facilitet_punkt_5800_Piktogrammer/Fritlagt/SVG/GEOPARK.svg

<svg xmlns="http://www.w3.org/2000/svg" width="5.5mm" height="5.5mm" viewBox="0 0 15.591 15.591">
  <path d="M8.86,3.976A9.027,9.027,0,0,0,7.668,3.9H7.63l-.041,0A6.962,6.962,0,0,0,3.25,5.258a3.528,3.528,0,0,0-1.7,2.81c0,2.285,2.854,4.144,6.363,4.144s6.364-1.859,6.364-4.144C14.277,5.994,11.921,4.275,8.86,3.976Zm-3.38.993A8.726,8.726,0,0,1,7.913,4.63c.161,0,.32.007.478.015,1.7.19,3.017,1,3.017,1.933,0,1.071-1.73,1.976-3.778,1.976S3.853,7.649,3.853,6.578C3.853,5.922,4.506,5.331,5.48,4.969ZM3.175,6.408c0,.058-.028.112-.028.17,0,1.5,1.97,2.682,4.483,2.682s4.483-1.178,4.483-2.682a1.691,1.691,0,0,0-.054-.332,1.736,1.736,0,0,1,.41,1.072c0,1.472-2.2,2.715-4.8,2.715s-4.8-1.243-4.8-2.715A1.668,1.668,0,0,1,3.175,6.408Zm4.738,5.1c-3.12,0-5.658-1.542-5.658-3.438,0-.03.006-.059.008-.089.483,1.591,2.683,2.76,5.405,2.76,3.088,0,5.507-1.5,5.507-3.421a2.282,2.282,0,0,0-.1-.649,2.35,2.35,0,0,1,.494,1.4C13.571,9.964,11.033,11.506,7.913,11.506Z" fill="#fff"/>
</svg>

<?xml version="1.0" encoding="UTF-8"?>
<svg id="ICONS" xmlns="http://www.w3.org/2000/svg" viewBox="0 0 15.59 15.59">
  <defs>
    <style>
      .cls-1 {
        fill: #fff;
        stroke-width: 0px;
      }
    </style>
  </defs>
  <path class="cls-1" d="M8.86,3.98c-.38-.05-.78-.08-1.19-.08,0,0-.02,0-.03,0,0,0,0,0-.01,0-.01,0-.03,0-.04,0-1.8.02-3.36.54-4.34,1.36-1.05.74-1.7,1.73-1.7,2.81,0,2.28,2.85,4.14,6.36,4.14s6.36-1.86,6.36-4.14c0-2.07-2.36-3.79-5.42-4.09ZM5.48,4.97c.74-.21,1.56-.34,2.43-.34.16,0,.32,0,.48.01,1.7.19,3.02,1,3.02,1.93,0,1.07-1.73,1.98-3.78,1.98s-3.78-.9-3.78-1.98c0-.66.65-1.25,1.63-1.61ZM3.18,6.41c0,.06-.03.11-.03.17,0,1.5,1.97,2.68,4.48,2.68s4.48-1.18,4.48-2.68c0-.11-.03-.22-.05-.33.26.33.41.69.41,1.07,0,1.47-2.2,2.72-4.8,2.72s-4.8-1.24-4.8-2.72c0-.32.12-.62.31-.91ZM7.91,11.51c-3.12,0-5.66-1.54-5.66-3.44,0-.03,0-.06,0-.09.48,1.59,2.68,2.76,5.41,2.76,3.09,0,5.51-1.5,5.51-3.42,0-.22-.04-.44-.1-.65.32.43.49.9.49,1.4,0,1.9-2.54,3.44-5.66,3.44Z"/>
</svg>
